X:1
T:Scots Wha Hae
M:4/4
L:1/8
K:F
 c3/2 d/2 c3/2 A/2 c3/2 d/2 c2| c3/2 e/2 f3/2 A/2 AG G2| c3/2 d/2 c3/2 A/2 c3/2 e/2 f2|\
 c3/2 B/2 A3/2 G/2 F4| c3/2 d/2 c3/2 A/2 c3/2 d/2 c2| c3/2 e/2 f3/2 A/2 AG G2|\
 c3/2 d/2 c3/2 A/2 c3/2 e/2 f2| c3/2 B/2 A3/2 G/2 F4|

